public/skill-logos/fusion360.svg

<svg xmlns="http://www.w3.org/2000/svg" width="256pt" height="256pt" viewBox="0 0 256 256"><path d="M46.791-.002 7.815 23.85l.208.14 7.65-.68 30.06-17.36Z" style="fill:#ff9548;stroke-width:.75;fill-opacity:1"/><path fill="#ff9548" d="M46.399.366 46.78 0c-.09 59.94-.13 119.88.02 179.82-6.626 3.994-34.558 20.822-38.97 23.43-.01-59.8.01-119.6-.01-179.4C16.709 15.663 38.796 8.836 46.399.366"/><path fill="#ff6b00" d="M46.78 0h171.61c6.13 1.02 11.96 5.71 12.23 12.27.19 9.33.01 18.66.07 28 .01 46.5-.01 93.01.01 139.51-61.3.1-122.6.02-183.9.04-.15-59.94-.11-119.88-.02-179.82m64.99 40.53c.03 33.12 0 66.25.02 99.37 8.3-.02 16.6.05 24.9-.04-.06-13.36-.02-26.73-.03-40.1 10.87.02 21.74-.07 32.62.04.1-5.89.16-11.8-.04-17.69-10.86.12-21.71.03-32.57.05-.06-7.88.07-15.76-.08-23.65 12.91-.24 25.83-.03 38.74-.1-.01-5.96-.01-11.93 0-17.89-21.18-.01-42.37-.02-63.56.01" style="display:inline"/><path fill="#933c00" d="M230.69 40.27c5.94.06 11.87-.15 17.81.13-.24 71.86-.04 143.73-.1 215.6H40.9c-5.81-1.25-11.45-5.68-11.72-12.02-.18-17.83-.03-35.67-.07-53.51 5.9-3.54 11.8-7.1 17.69-10.65 61.3-.02 122.6.06 183.9-.04-.02-46.5 0-93.01-.01-139.51m-67.65 158.79c-5.98 3.18-6.67 13.1-.89 16.77 4.26 2.55 9.33 3.16 13.81 5.21 2.8 1.01 3.04 5.21.95 7.02-4.15 2.47-11.05.88-11.18-4.73-2.9 0-5.79.01-8.69 0 .21 3.27 1.31 6.63 3.86 8.84 4.07 3.74 10.03 4.07 15.26 3.52 4.91-.51 10.17-3.53 11.22-8.7.56-3.71.37-8.19-2.82-10.71-4.38-3.61-10.41-3.8-15.3-6.43-2.19-1.02-2.31-4.58-.27-5.79 3.7-2.14 9.43-.51 9.84 4.26 2.86.02 5.73.02 8.59 0-.24-4.26-2.65-8.43-6.73-10.04-5.58-2.23-12.33-2.14-17.65.78m-70.92-1.44c.17 12.52.04 25.05.07 37.57 3.08 0 6.16 0 9.24.09.34-5.14.03-10.28.17-15.42q6.15.015 12.3 0c0-2.21 0-4.41-.01-6.61-4.11.01-8.21.01-12.32.01.03-2.93.02-5.87-.08-8.79 4.91-.27 9.83-.06 14.75-.13 0-2.27 0-4.54.01-6.8-8.05.04-16.09-.12-24.13.08m28.92-.04c.34 9.78-.47 19.63.45 29.38 1.76 9.44 14.87 11.74 21.22 5.52.26.9.53 1.8.82 2.7 2.63.01 5.26.01 7.89.12.42-12.58.14-25.2.13-37.79-3.13.03-6.26.02-9.39.11.16 8.8 0 17.6.09 26.41.83 6.26-11.34 7.35-11.7.85-.28-9.1-.05-18.22-.11-27.32-3.13-.03-6.26-.03-9.4.02"/><g fill="#fff"><path d="M111.77 40.53c21.19-.03 42.38-.02 63.56-.01-.01 5.96-.01 11.93 0 17.89-12.91.07-25.83-.14-38.74.1.15 7.89.02 15.77.08 23.65 10.86-.02 21.71.07 32.57-.05.2 5.89.14 11.8.04 17.69-10.88-.11-21.75-.02-32.62-.04.01 13.37-.03 26.74.03 40.1-8.3.09-16.6.02-24.9.04-.02-33.12.01-66.25-.02-99.37M163.04 199.06c5.32-2.92 12.07-3.01 17.65-.78 4.08 1.61 6.49 5.78 6.73 10.04-2.86.02-5.73.02-8.59 0-.41-4.77-6.14-6.4-9.84-4.26-2.04 1.21-1.92 4.77.27 5.79 4.89 2.63 10.92 2.82 15.3 6.43 3.19 2.52 3.38 7 2.82 10.71-1.05 5.17-6.31 8.19-11.22 8.7-5.23.55-11.19.22-15.26-3.52-2.55-2.21-3.65-5.57-3.86-8.84 2.9.01 5.79 0 8.69 0 .13 5.61 7.03 7.2 11.18 4.73 2.09-1.81 1.85-6.01-.95-7.02-4.48-2.05-9.55-2.66-13.81-5.21-5.78-3.67-5.09-13.59.89-16.77M92.12 197.62c8.04-.2 16.08-.04 24.13-.08-.01 2.26-.01 4.53-.01 6.8-4.92.07-9.84-.14-14.75.13.1 2.92.11 5.86.08 8.79 4.11 0 8.21 0 12.32-.01.01 2.2.01 4.4.01 6.61q-6.15.015-12.3 0c-.14 5.14.17 10.28-.17 15.42-3.08-.09-6.16-.09-9.24-.09-.03-12.52.1-25.05-.07-37.57M121.04 197.58c3.14-.05 6.27-.05 9.4-.02.06 9.1-.17 18.22.11 27.32.36 6.5 12.53 5.41 11.7-.85-.09-8.81.07-17.61-.09-26.41 3.13-.09 6.26-.08 9.39-.11.01 12.59.29 25.21-.13 37.79-2.63-.11-5.26-.11-7.89-.12-.29-.9-.56-1.8-.82-2.7-6.35 6.22-19.46 3.92-21.22-5.52-.92-9.75-.11-19.6-.45-29.38"/></g></svg>

<?xml version="1.0" encoding="UTF-8" standalone="no"?>
<svg
   width="256pt"
   height="256pt"
   viewBox="0 0 256 256"
   version="1.1"
   id="svg7"
   sodipodi:docname="Fusion360-82.svg"
   inkscape:version="1.4.2 (ebf0e940d0, 2025-05-08)"
   xmlns:inkscape="http://www.inkscape.org/namespaces/inkscape"
   xmlns:sodipodi="http://sodipodi.sourceforge.net/DTD/sodipodi-0.dtd"
   xmlns="http://www.w3.org/2000/svg"
   xmlns:svg="http://www.w3.org/2000/svg">
  <defs
     id="defs7" />
  <sodipodi:namedview
     id="namedview7"
     pagecolor="#ffffff"
     bordercolor="#000000"
     borderopacity="0.25"
     inkscape:showpageshadow="2"
     inkscape:pageopacity="0.0"
     inkscape:pagecheckerboard="0"
     inkscape:deskcolor="#d1d1d1"
     inkscape:document-units="pt"
     showgrid="false"
     inkscape:zoom="1.4142136"
     inkscape:cx="228.74904"
     inkscape:cy="139.30004"
     inkscape:window-width="1418"
     inkscape:window-height="892"
     inkscape:window-x="0"
     inkscape:window-y="0"
     inkscape:window-maximized="1"
     inkscape:current-layer="g8" />
  <g
     id="g8">
    <path
       style="fill:#ff9548;stroke-width:0.75;fill-opacity:1"
       d="M 46.79097,-0.00247339 7.8151404,23.849982 8.0231482,23.990607 15.67377,23.310848 45.733663,5.9498164 Z"
       id="path8"
       sodipodi:nodetypes="cccccc" />
    <path
       fill="#ff9548"
       opacity="1"
       d="M 46.398594,0.36621094 46.78,0 C 46.69,59.94 46.65,119.88 46.8,179.82 40.173599,183.81384 12.241533,200.6415 7.83,203.25 7.82,143.45 7.84,83.65 7.82,23.85 16.708712,15.663236 38.795821,8.8363876 46.398594,0.36621094 Z"
       id="path1"
       sodipodi:nodetypes="cccccc" />
  </g>
  <g
     id="#ff6b00ff"
     style="display:inline">
    <path
       fill="#ff6b00"
       opacity="1"
       d="m 46.78,0 h 171.61 c 6.13,1.02 11.96,5.71 12.23,12.27 0.19,9.33 0.01,18.66 0.07,28 0.01,46.5 -0.01,93.01 0.01,139.51 -61.3,0.1 -122.6,0.02 -183.9,0.04 C 46.65,119.88 46.69,59.94 46.78,0 m 64.99,40.53 c 0.03,33.12 0,66.25 0.02,99.37 8.3,-0.02 16.6,0.05 24.9,-0.04 -0.06,-13.36 -0.02,-26.73 -0.03,-40.1 10.87,0.02 21.74,-0.07 32.62,0.04 0.1,-5.89 0.16,-11.8 -0.04,-17.69 -10.86,0.12 -21.71,0.03 -32.57,0.05 -0.06,-7.88 0.07,-15.76 -0.08,-23.65 12.91,-0.24 25.83,-0.03 38.74,-0.1 -0.01,-5.96 -0.01,-11.93 0,-17.89 -21.18,-0.01 -42.37,-0.02 -63.56,0.01 z"
       id="path2" />
  </g>
  <g
     id="#933c00ff">
    <path
       fill="#933c00"
       opacity="1.00"
       d=" M 230.69 40.27 C 236.63 40.33 242.56 40.12 248.50 40.40 C 248.26 112.26 248.46 184.13 248.40 256.00 L 40.90 256.00 C 35.09 254.75 29.45 250.32 29.18 243.98 C 29.00 226.15 29.15 208.31 29.11 190.47 C 35.01 186.93 40.91 183.37 46.80 179.82 C 108.10 179.80 169.40 179.88 230.70 179.78 C 230.68 133.28 230.70 86.77 230.69 40.27 M 163.04 199.06 C 157.06 202.24 156.37 212.16 162.15 215.83 C 166.41 218.38 171.48 218.99 175.96 221.04 C 178.76 222.05 179.00 226.25 176.91 228.06 C 172.76 230.53 165.86 228.94 165.73 223.33 C 162.83 223.33 159.94 223.34 157.04 223.33 C 157.25 226.60 158.35 229.96 160.90 232.17 C 164.97 235.91 170.93 236.24 176.16 235.69 C 181.07 235.18 186.33 232.16 187.38 226.99 C 187.94 223.28 187.75 218.80 184.56 216.28 C 180.18 212.67 174.15 212.48 169.26 209.85 C 167.07 208.83 166.95 205.27 168.99 204.06 C 172.69 201.92 178.42 203.55 178.83 208.32 C 181.69 208.34 184.56 208.34 187.42 208.32 C 187.18 204.06 184.77 199.89 180.69 198.28 C 175.11 196.05 168.36 196.14 163.04 199.06 M 92.12 197.62 C 92.29 210.14 92.16 222.67 92.19 235.19 C 95.27 235.19 98.35 235.19 101.43 235.28 C 101.77 230.14 101.46 225.00 101.60 219.86 C 105.70 219.87 109.80 219.87 113.90 219.86 C 113.90 217.65 113.90 215.45 113.89 213.25 C 109.78 213.26 105.68 213.26 101.57 213.26 C 101.60 210.33 101.59 207.39 101.49 204.47 C 106.40 204.20 111.32 204.41 116.24 204.34 C 116.24 202.07 116.24 199.80 116.25 197.54 C 108.20 197.58 100.16 197.42 92.12 197.62 M 121.04 197.58 C 121.38 207.36 120.57 217.21 121.49 226.96 C 123.25 236.40 136.36 238.70 142.71 232.48 C 142.97 233.38 143.24 234.28 143.53 235.18 C 146.16 235.19 148.79 235.19 151.42 235.30 C 151.84 222.72 151.56 210.10 151.55 197.51 C 148.42 197.54 145.29 197.53 142.16 197.62 C 142.32 206.42 142.16 215.22 142.25 224.03 C 143.08 230.29 130.91 231.38 130.55 224.88 C 130.27 215.78 130.50 206.66 130.44 197.56 C 127.31 197.53 124.18 197.53 121.04 197.58 Z"
       id="path3" />
  </g>
  <g
     id="#ffffffff">
    <path
       fill="#ffffff"
       opacity="1.00"
       d=" M 111.77 40.53 C 132.96 40.50 154.15 40.51 175.33 40.52 C 175.32 46.48 175.32 52.45 175.33 58.41 C 162.42 58.48 149.50 58.27 136.59 58.51 C 136.74 66.40 136.61 74.28 136.67 82.16 C 147.53 82.14 158.38 82.23 169.24 82.11 C 169.44 88.00 169.38 93.91 169.28 99.80 C 158.40 99.69 147.53 99.78 136.66 99.76 C 136.67 113.13 136.63 126.50 136.69 139.86 C 128.39 139.95 120.09 139.88 111.79 139.90 C 111.77 106.78 111.80 73.65 111.77 40.53 Z"
       id="path4" />
    <path
       fill="#ffffff"
       opacity="1.00"
       d=" M 163.04 199.06 C 168.36 196.14 175.11 196.05 180.69 198.28 C 184.77 199.89 187.18 204.06 187.42 208.32 C 184.56 208.34 181.69 208.34 178.83 208.32 C 178.42 203.55 172.69 201.92 168.99 204.06 C 166.95 205.27 167.07 208.83 169.26 209.85 C 174.15 212.48 180.18 212.67 184.56 216.28 C 187.75 218.80 187.94 223.28 187.38 226.99 C 186.33 232.16 181.07 235.18 176.16 235.69 C 170.93 236.24 164.97 235.91 160.90 232.17 C 158.35 229.96 157.25 226.60 157.04 223.33 C 159.94 223.34 162.83 223.33 165.73 223.33 C 165.86 228.94 172.76 230.53 176.91 228.06 C 179.00 226.25 178.76 222.05 175.96 221.04 C 171.48 218.99 166.41 218.38 162.15 215.83 C 156.37 212.16 157.06 202.24 163.04 199.06 Z"
       id="path5" />
    <path
       fill="#ffffff"
       opacity="1.00"
       d=" M 92.12 197.62 C 100.16 197.42 108.20 197.58 116.25 197.54 C 116.24 199.80 116.24 202.07 116.24 204.34 C 111.32 204.41 106.40 204.20 101.49 204.47 C 101.59 207.39 101.60 210.33 101.57 213.26 C 105.68 213.26 109.78 213.26 113.89 213.25 C 113.90 215.45 113.90 217.65 113.90 219.86 C 109.80 219.87 105.70 219.87 101.60 219.86 C 101.46 225.00 101.77 230.14 101.43 235.28 C 98.35 235.19 95.27 235.19 92.19 235.19 C 92.16 222.67 92.29 210.14 92.12 197.62 Z"
       id="path6" />
    <path
       fill="#ffffff"
       opacity="1.00"
       d=" M 121.04 197.58 C 124.18 197.53 127.31 197.53 130.44 197.56 C 130.50 206.66 130.27 215.78 130.55 224.88 C 130.91 231.38 143.08 230.29 142.25 224.03 C 142.16 215.22 142.32 206.42 142.16 197.62 C 145.29 197.53 148.42 197.54 151.55 197.51 C 151.56 210.10 151.84 222.72 151.42 235.30 C 148.79 235.19 146.16 235.19 143.53 235.18 C 143.24 234.28 142.97 233.38 142.71 232.48 C 136.36 238.70 123.25 236.40 121.49 226.96 C 120.57 217.21 121.38 207.36 121.04 197.58 Z"
       id="path7" />
  </g>
</svg>
